X:9400
T:Le Magicien II - bourree
C:Gilles Chabenat
N:abc transcription Simon Wascher
N:if you find an error in this transcription please inform simon.wascher@chello.at
M:3/8
L:1/16
K:D
D2F2D2|G4F2|A2F2D2|E2F2E2|
D2F2D2|G2F2A2|F2E2D2|B2G2E2:|
|:A2B2A2|E2G2B2|A4d2-|d2G2A2|
B2A2G2|E2G2B2|A4B2-|1B2c2d2:|2E2F2E2||


